Newaita-dark/apps/24/accessories-character-map.svg

<?xml version="1.0" encoding="UTF-8"?>
<svg xmlns="http://www.w3.org/2000/svg" xmlns:xlink="http://www.w3.org/1999/xlink" width="24px" height="24px" viewBox="0 0 24 24" version="1.1">
<defs>
<linearGradient id="linear0" gradientUnits="userSpaceOnUse" x1="254" y1="233.5" x2="254" y2="254.666672" gradientTransform="matrix(0.0468795,0,0,0.0468795,-0.0000028613,10.079089)">
<stop offset="0" style="stop-color:rgb(0%,0%,0%);stop-opacity:0.27451;"/>
<stop offset="1" style="stop-color:rgb(0%,0%,0%);stop-opacity:0;"/>
</linearGradient>
<radialGradient id="radial0" gradientUnits="userSpaceOnUse" cx="450.908936" cy="189.579361" fx="450.908936" fy="189.579361" r="21.166656" gradientTransform="matrix(0.000000130628,-0.0585994,-0.105479,-0.0000000761539,39.097986,47.696499)">
<stop offset="0" style="stop-color:rgb(0%,0%,0%);stop-opacity:0.313726;"/>
<stop offset="0.222222" style="stop-color:rgb(0%,0%,0%);stop-opacity:0.27451;"/>
<stop offset="1" style="stop-color:rgb(0%,0%,0%);stop-opacity:0;"/>
</radialGradient>
<radialGradient id="radial1" gradientUnits="userSpaceOnUse" cx="450.908936" cy="189.579361" fx="450.908936" fy="189.579361" r="21.166656" gradientTransform="matrix(-0.000000130628,0.0585994,0.105479,0.0000000761539,-15.28321,-5.645609)">
<stop offset="0" style="stop-color:rgb(0%,0%,0%);stop-opacity:0.313726;"/>
<stop offset="0.222222" style="stop-color:rgb(0%,0%,0%);stop-opacity:0.27451;"/>
<stop offset="1" style="stop-color:rgb(0%,0%,0%);stop-opacity:0;"/>
</radialGradient>
<radialGradient id="radial2" gradientUnits="userSpaceOnUse" cx="450.908936" cy="189.579361" fx="450.908936" fy="189.579361" r="21.166656" gradientTransform="matrix(-0.000000130628,-0.0585994,0.105479,-0.0000000761539,-15.28321,47.696499)">
<stop offset="0" style="stop-color:rgb(0%,0%,0%);stop-opacity:0.313726;"/>
<stop offset="0.222222" style="stop-color:rgb(0%,0%,0%);stop-opacity:0.27451;"/>
<stop offset="1" style="stop-color:rgb(0%,0%,0%);stop-opacity:0;"/>
</radialGradient>
<radialGradient id="radial3" gradientUnits="userSpaceOnUse" cx="450.908936" cy="189.579361" fx="450.908936" fy="189.579361" r="21.166656" gradientTransform="matrix(0.000000130628,0.0585994,-0.105479,0.0000000761539,39.097985,-5.64561)">
<stop offset="0" style="stop-color:rgb(0%,0%,0%);stop-opacity:0.313726;"/>
<stop offset="0.222222" style="stop-color:rgb(0%,0%,0%);stop-opacity:0.27451;"/>
<stop offset="1" style="stop-color:rgb(0%,0%,0%);stop-opacity:0;"/>
</radialGradient>
<linearGradient id="linear1" gradientUnits="userSpaceOnUse" x1="285.75" y1="233.5" x2="285.75" y2="-168.666672" gradientTransform="matrix(0.0468795,0,0,0.0468795,0,10.079087)">
<stop offset="0" style="stop-color:rgb(61.960787%,61.960787%,61.960787%);stop-opacity:1;"/>
<stop offset="1" style="stop-color:rgb(74.117649%,74.117649%,74.117649%);stop-opacity:1;"/>
</linearGradient>
<linearGradient id="linear2" gradientUnits="userSpaceOnUse" x1="254" y1="-147.5" x2="253.999985" y2="212.333328" gradientTransform="matrix(0.0468795,0,0,0.0468795,0,10.079087)">
<stop offset="0" style="stop-color:rgb(87.843138%,87.843138%,87.843138%);stop-opacity:1;"/>
<stop offset="1" style="stop-color:rgb(93.333334%,93.333334%,93.333334%);stop-opacity:1;"/>
</linearGradient>
<filter id="alpha" filterUnits="objectBoundingBox" x="0%" y="0%" width="100%" height="100%">
  <feColorMatrix type="matrix" in="SourceGraphic" values="0 0 0 0 1 0 0 0 0 1 0 0 0 0 1 0 0 0 1 0"/>
</filter>
<mask id="mask0">
  <g filter="url(#alpha)">
<rect x="0" y="0" width="24" height="24" style="fill:rgb(0%,0%,0%);fill-opacity:0.99;stroke:none;"/>
  </g>
</mask>
<linearGradient id="linear3" gradientUnits="userSpaceOnUse" x1="960" y1="1695.118164" x2="960.000061" y2="135.118118" gradientTransform="matrix(0.0124035,0,0,0.0124035,0,0)">
<stop offset="0" style="stop-color:rgb(25.882354%,25.882354%,25.882354%);stop-opacity:1;"/>
<stop offset="1" style="stop-color:rgb(38.039216%,38.039216%,38.039216%);stop-opacity:1;"/>
</linearGradient>
<clipPath id="clip1">
  <rect x="0" y="0" width="24" height="24"/>
</clipPath>
<g id="surface5" clip-path="url(#clip1)">
<path style=" stroke:none;fill-rule:nonzero;fill:url(#linear3);" d="M 10.929688 5.082031 C 10.761719 5.085938 10.601562 5.175781 10.511719 5.332031 L 10.265625 5.761719 C 10.125 6 10.207031 6.300781 10.445312 6.4375 L 12.59375 7.679688 C 12.832031 7.816406 13.132812 7.734375 13.273438 7.496094 L 13.519531 7.066406 C 13.65625 6.828125 13.578125 6.527344 13.339844 6.390625 L 11.191406 5.148438 C 11.109375 5.101562 11.019531 5.082031 10.929688 5.082031 Z M 8.929688 8.621094 C 8.378906 8.621094 7.9375 9.066406 7.9375 9.613281 L 7.9375 10.605469 L 9.425781 10.605469 C 9.425781 10.332031 9.648438 10.109375 9.921875 10.109375 L 13.890625 10.109375 C 14.167969 10.109375 14.386719 10.332031 14.386719 10.605469 L 14.386719 12.589844 L 8.929688 12.589844 C 8.378906 12.589844 7.9375 13.035156 7.9375 13.582031 L 7.9375 17.054688 C 7.9375 17.605469 8.378906 18.046875 8.929688 18.046875 L 15.875 18.046875 L 15.875 9.613281 C 15.875 9.066406 15.433594 8.621094 14.882812 8.621094 Z M 9.921875 14.078125 L 14.386719 14.078125 L 14.386719 16.558594 L 9.921875 16.558594 C 9.648438 16.558594 9.425781 16.339844 9.425781 16.0625 L 9.425781 14.574219 C 9.425781 14.300781 9.648438 14.078125 9.921875 14.078125 Z M 9.921875 14.078125 "/>
</g>
<mask id="mask1">
  <g filter="url(#alpha)">
<rect x="0" y="0" width="24" height="24" style="fill:rgb(0%,0%,0%);fill-opacity:0.99;stroke:none;"/>
  </g>
</mask>
<clipPath id="clip2">
  <rect x="0" y="0" width="24" height="24"/>
</clipPath>
<g id="surface8" clip-path="url(#clip2)">
<path style=" stroke:none;fill-rule:nonzero;fill:rgb(0%,0%,0%);fill-opacity:0.235294;" d="M 10.929688 5.082031 C 10.761719 5.085938 10.601562 5.175781 10.511719 5.332031 L 10.265625 5.761719 C 10.183594 5.898438 10.179688 6.058594 10.234375 6.195312 C 10.242188 6.171875 10.253906 6.152344 10.265625 6.132812 L 10.511719 5.703125 C 10.601562 5.546875 10.761719 5.457031 10.929688 5.453125 C 11.019531 5.453125 11.109375 5.472656 11.191406 5.519531 L 13.339844 6.761719 C 13.4375 6.820312 13.511719 6.90625 13.550781 7.003906 C 13.640625 6.777344 13.554688 6.515625 13.339844 6.390625 L 11.191406 5.148438 C 11.109375 5.101562 11.019531 5.082031 10.929688 5.082031 Z M 8.929688 8.621094 C 8.378906 8.621094 7.9375 9.066406 7.9375 9.613281 L 7.9375 9.984375 C 7.9375 9.4375 8.378906 8.992188 8.929688 8.992188 L 14.882812 8.992188 C 15.433594 8.992188 15.875 9.4375 15.875 9.984375 L 15.875 9.613281 C 15.875 9.066406 15.433594 8.621094 14.882812 8.621094 Z M 8.929688 12.589844 C 8.378906 12.589844 7.9375 13.035156 7.9375 13.582031 L 7.9375 13.957031 C 7.9375 13.40625 8.378906 12.964844 8.929688 12.964844 L 14.386719 12.964844 L 14.386719 12.589844 Z M 9.425781 16.0625 L 9.425781 16.4375 C 9.425781 16.710938 9.648438 16.933594 9.921875 16.933594 L 14.386719 16.933594 L 14.386719 16.558594 L 9.921875 16.558594 C 9.648438 16.558594 9.425781 16.339844 9.425781 16.0625 Z M 9.425781 16.0625 "/>
</g>
<mask id="mask2">
  <g filter="url(#alpha)">
<rect x="0" y="0" width="24" height="24" style="fill:rgb(0%,0%,0%);fill-opacity:0.99;stroke:none;"/>
  </g>
</mask>
<clipPath id="clip3">
  <rect x="0" y="0" width="24" height="24"/>
</clipPath>
<g id="surface11" clip-path="url(#clip3)">
<path style=" stroke:none;fill-rule:nonzero;fill:rgb(100%,100%,100%);fill-opacity:1;" d="M 10.265625 6.257812 C 10.125 6.496094 10.207031 6.796875 10.445312 6.933594 L 12.59375 8.175781 C 12.832031 8.3125 13.132812 8.230469 13.273438 7.992188 L 13.519531 7.5625 C 13.613281 7.402344 13.605469 7.214844 13.519531 7.066406 L 13.273438 7.496094 C 13.132812 7.734375 12.832031 7.816406 12.59375 7.679688 L 10.445312 6.4375 C 10.367188 6.394531 10.304688 6.328125 10.265625 6.257812 Z M 9.921875 10.109375 C 9.648438 10.109375 9.425781 10.332031 9.425781 10.605469 L 7.9375 10.605469 L 7.9375 11.101562 L 9.425781 11.101562 C 9.425781 10.828125 9.648438 10.605469 9.921875 10.605469 L 13.890625 10.605469 C 14.167969 10.605469 14.386719 10.828125 14.386719 11.101562 L 14.386719 10.605469 C 14.386719 10.332031 14.167969 10.109375 13.890625 10.109375 Z M 9.921875 14.078125 C 9.648438 14.078125 9.425781 14.300781 9.425781 14.574219 L 9.425781 15.070312 C 9.425781 14.796875 9.648438 14.574219 9.921875 14.574219 L 14.386719 14.574219 L 14.386719 14.078125 Z M 7.9375 17.054688 L 7.9375 17.550781 C 7.9375 18.101562 8.378906 18.542969 8.929688 18.542969 L 15.875 18.542969 L 15.875 18.046875 L 8.929688 18.046875 C 8.378906 18.046875 7.9375 17.605469 7.9375 17.054688 Z M 7.9375 17.054688 "/>
</g>
<mask id="mask3">
  <g filter="url(#alpha)">
<rect x="0" y="0" width="24" height="24" style="fill:rgb(0%,0%,0%);fill-opacity:0.99;stroke:none;"/>
  </g>
</mask>
<clipPath id="clip4">
  <rect x="0" y="0" width="24" height="24"/>
</clipPath>
<g id="surface14" clip-path="url(#clip4)">
<path style="fill:none;stroke-width:11.338583;stroke-linecap:round;stroke-linejoin:round;stroke:rgb(12.941177%,12.941177%,12.941177%);stroke-opacity:1;stroke-miterlimit:4;" d="M 881.175741 409.724674 C 867.633726 410.039605 854.721573 417.283008 847.47817 429.880231 L 827.637544 464.522594 C 816.300043 483.733359 822.913585 507.983013 842.12435 519.005583 L 1015.336164 619.153505 C 1034.546929 630.176075 1058.796583 623.562533 1070.134084 604.351768 L 1089.97471 569.709405 C 1100.99728 550.49864 1094.698669 526.248986 1075.487904 515.226416 L 902.276089 415.078494 C 895.662547 411.299327 888.419144 409.724674 881.175741 409.724674 Z M 719.931288 695.051773 C 675.526077 695.051773 639.938923 730.953858 639.938923 775.044138 L 639.938923 855.036503 L 759.927471 855.036503 C 759.927471 832.991363 777.878513 815.040321 799.923653 815.040321 L 1119.893114 815.040321 C 1142.253185 815.040321 1159.889297 832.991363 1159.889297 855.036503 L 1159.889297 1015.021234 L 719.931288 1015.021234 C 675.526077 1015.021234 639.938923 1050.923319 639.938923 1095.013599 L 639.938923 1374.986878 C 639.938923 1419.392088 675.526077 1454.979243 719.931288 1454.979243 L 1279.877845 1454.979243 L 1279.877845 775.044138 C 1279.877845 730.953858 1244.29069 695.051773 1199.88548 695.051773 Z M 799.923653 1135.009782 L 1159.889297 1135.009782 L 1159.889297 1334.990695 L 799.923653 1334.990695 C 777.878513 1334.990695 759.927471 1317.354583 759.927471 1294.994513 L 759.927471 1175.005965 C 759.927471 1152.960824 777.878513 1135.009782 799.923653 1135.009782 Z M 799.923653 1135.009782 " transform="matrix(0.0124035,0,0,0.0124035,0,0)"/>
</g>
</defs>
<g id="surface1">
<path style=" stroke:none;fill-rule:nonzero;fill:url(#linear0);" d="M 4.464844 20.953125 L 19.347656 20.953125 L 19.347656 22.054688 L 4.464844 22.054688 Z M 4.464844 20.953125 "/>
<path style=" stroke:none;fill-rule:nonzero;fill:url(#radial0);" d="M 19.347656 21.027344 L 21.335938 21.027344 L 21.335938 20.03125 L 19.347656 20.03125 Z M 19.347656 21.027344 "/>
<path style=" stroke:none;fill-rule:nonzero;fill:url(#radial1);" d="M 4.464844 21.027344 L 2.480469 21.027344 L 2.480469 22.019531 L 4.464844 22.019531 Z M 4.464844 21.027344 "/>
<path style=" stroke:none;fill-rule:nonzero;fill:url(#radial2);" d="M 4.464844 21.027344 L 2.480469 21.027344 L 2.480469 20.03125 L 4.464844 20.03125 Z M 4.464844 21.027344 "/>
<path style=" stroke:none;fill-rule:nonzero;fill:url(#radial3);" d="M 19.347656 21.027344 L 21.335938 21.027344 L 21.335938 22.019531 L 19.347656 22.019531 Z M 19.347656 21.027344 "/>
<path style=" stroke:none;fill-rule:nonzero;fill:url(#linear1);" d="M 3.472656 2.171875 L 20.339844 2.171875 C 20.890625 2.171875 21.335938 2.617188 21.335938 3.164062 L 21.335938 20.03125 C 21.335938 20.582031 20.890625 21.027344 20.339844 21.027344 L 3.472656 21.027344 C 2.925781 21.027344 2.480469 20.582031 2.480469 20.03125 L 2.480469 3.164062 C 2.480469 2.617188 2.925781 2.171875 3.472656 2.171875 Z M 3.472656 2.171875 "/>
<path style=" stroke:none;fill-rule:nonzero;fill:rgb(90.196079%,90.196079%,90.196079%);fill-opacity:0.392157;" d="M 3.472656 2.171875 C 2.921875 2.171875 2.480469 2.613281 2.480469 3.164062 L 2.480469 3.289062 C 2.480469 2.738281 2.921875 2.296875 3.472656 2.296875 L 20.339844 2.296875 C 20.890625 2.296875 21.335938 2.738281 21.335938 3.289062 L 21.335938 3.164062 C 21.335938 2.613281 20.890625 2.171875 20.339844 2.171875 Z M 3.472656 2.171875 "/>
<path style=" stroke:none;fill-rule:nonzero;fill:rgb(0%,0%,0%);fill-opacity:0.196078;" d="M 3.472656 21.027344 C 2.921875 21.027344 2.480469 20.582031 2.480469 20.03125 L 2.480469 19.910156 C 2.480469 20.457031 2.921875 20.902344 3.472656 20.902344 L 20.339844 20.902344 C 20.890625 20.902344 21.335938 20.457031 21.335938 19.910156 L 21.335938 20.03125 C 21.335938 20.582031 20.890625 21.027344 20.339844 21.027344 Z M 3.472656 21.027344 "/>
<path style="fill:none;stroke-width:3;stroke-linecap:round;stroke-linejoin:miter;stroke:rgb(12.941177%,12.941177%,12.941177%);stroke-opacity:1;stroke-miterlimit:4;" d="M 74.076259 -168.671091 L 433.875234 -168.671091 C 445.624112 -168.671091 455.123205 -159.171998 455.123205 -147.506445 L 455.123205 212.292529 C 455.123205 224.041407 445.624112 233.5405 433.875234 233.5405 L 74.076259 233.5405 C 62.410707 233.5405 52.911614 224.041407 52.911614 212.292529 L 52.911614 -147.506445 C 52.911614 -159.171998 62.410707 -168.671091 74.076259 -168.671091 Z M 74.076259 -168.671091 " transform="matrix(0.0468795,0,0,0.0468795,0,10.079087)"/>
<path style=" stroke:none;fill-rule:nonzero;fill:url(#linear2);" d="M 4.960938 3.660156 L 18.851562 3.660156 C 19.402344 3.660156 19.84375 4.074219 19.84375 4.589844 L 19.84375 18.609375 C 19.84375 19.121094 19.402344 19.535156 18.851562 19.535156 L 4.960938 19.535156 C 4.414062 19.535156 3.96875 19.121094 3.96875 18.609375 L 3.96875 4.589844 C 3.96875 4.074219 4.414062 3.660156 4.960938 3.660156 Z M 4.960938 3.660156 "/>
<use xlink:href="#surface5" mask="url(#mask0)"/>
<use xlink:href="#surface8" mask="url(#mask1)"/>
<use xlink:href="#surface11" mask="url(#mask2)"/>
<use xlink:href="#surface14" mask="url(#mask3)"/>
</g>
</svg>

<svg xmlns="http://www.w3.org/2000/svg" width="32" height="32" viewBox="0 0 24 24"><defs><linearGradient id="a" gradientUnits="userSpaceOnUse" x1="254" y1="233.5" x2="254" y2="254.667" gradientTransform="matrix(.04688 0 0 .04688 0 10.08)"><stop offset="0" stop-opacity=".275"/><stop offset="1" stop-opacity="0"/></linearGradient><radialGradient id="b" gradientUnits="userSpaceOnUse" cx="450.909" cy="189.579" fx="450.909" fy="189.579" r="21.167" gradientTransform="matrix(0 -.0586 -.10548 0 39.098 47.696)"><stop offset="0" stop-opacity=".314"/><stop offset=".222" stop-opacity=".275"/><stop offset="1" stop-opacity="0"/></radialGradient><radialGradient id="c" gradientUnits="userSpaceOnUse" cx="450.909" cy="189.579" fx="450.909" fy="189.579" r="21.167" gradientTransform="matrix(0 .0586 .10548 0 -15.283 -5.646)"><stop offset="0" stop-opacity=".314"/><stop offset=".222" stop-opacity=".275"/><stop offset="1" stop-opacity="0"/></radialGradient><radialGradient id="d" gradientUnits="userSpaceOnUse" cx="450.909" cy="189.579" fx="450.909" fy="189.579" r="21.167" gradientTransform="matrix(0 -.0586 .10548 0 -15.283 47.696)"><stop offset="0" stop-opacity=".314"/><stop offset=".222" stop-opacity=".275"/><stop offset="1" stop-opacity="0"/></radialGradient><radialGradient id="e" gradientUnits="userSpaceOnUse" cx="450.909" cy="189.579" fx="450.909" fy="189.579" r="21.167" gradientTransform="matrix(0 .0586 -.10548 0 39.098 -5.646)"><stop offset="0" stop-opacity=".314"/><stop offset=".222" stop-opacity=".275"/><stop offset="1" stop-opacity="0"/></radialGradient><linearGradient id="f" gradientUnits="userSpaceOnUse" x1="285.75" y1="233.5" x2="285.75" y2="-168.667" gradientTransform="matrix(.04688 0 0 .04688 0 10.08)"><stop offset="0" stop-color="#bdbdbd"/><stop offset="1" stop-color="#e0e0e0"/></linearGradient><linearGradient id="g" gradientUnits="userSpaceOnUse" x1="254" y1="-147.5" x2="254" y2="212.333" gradientTransform="matrix(.04688 0 0 .04688 0 10.08)"><stop offset="0" stop-color="#eee"/><stop offset="1" stop-color="#f5f5f5"/></linearGradient><linearGradient id="h" gradientUnits="userSpaceOnUse" x1="349.25" y1="-115.75" x2="349.25" y2="191.167"><stop offset="0" stop-color="#424242"/><stop offset="1" stop-color="#616161"/></linearGradient><linearGradient id="i" gradientUnits="userSpaceOnUse" x1="291.042" y1="-115.75" x2="296.333" y2="191.167"><stop offset="0" stop-color="#424242"/><stop offset="1" stop-color="#616161"/></linearGradient></defs><path d="M4.465 20.953h14.883v1.102H4.465zm0 0" fill="url(#a)"/><path d="M19.348 21.027h1.988v-.996h-1.988zm0 0" fill="url(#b)"/><path d="M4.465 21.027H2.48v.993h1.985zm0 0" fill="url(#c)"/><path d="M4.465 21.027H2.48v-.996h1.985zm0 0" fill="url(#d)"/><path d="M19.348 21.027h1.988v.993h-1.988zm0 0" fill="url(#e)"/><path d="M3.473 2.172H20.34c.55 0 .996.445.996.992v16.867c0 .551-.445.996-.996.996H3.473a.994.994 0 0 1-.993-.996V3.164c0-.547.446-.992.993-.992zm0 0" fill="url(#f)"/><path d="M3.473 2.172a.989.989 0 0 0-.993.992v.125c0-.55.442-.992.993-.992H20.34c.55 0 .996.441.996.992v-.125a.992.992 0 0 0-.996-.992zm0 0" fill="#e6e6e6" fill-opacity=".392"/><path d="M3.473 21.027a.992.992 0 0 1-.993-.996v-.12c0 .546.442.991.993.991H20.34c.55 0 .996-.445.996-.992v.121c0 .551-.445.996-.996.996zm0 0" fill-opacity=".196"/><path d="M3.473 2.172H20.34c.55 0 .996.445.996.992v16.867c0 .551-.445.996-.996.996H3.473a.994.994 0 0 1-.993-.996V3.164c0-.547.446-.992.993-.992zm0 0" fill="none" stroke-width=".14064" stroke-linecap="round" stroke="#212121"/><path d="M4.465 3.164h14.883c.55 0 .992.414.992.93v15.011c0 .512-.442.926-.992.926H4.465c-.547 0-.992-.414-.992-.926V4.094c0-.516.445-.93.992-.93zm0 0" fill="url(#g)"/><path d="M317.47-20.519c-28.248 0-53.162 10.25-68.494 26.165-16.165 21.498 5 37.33 39.913 21.748 7.5-3.5 17.582-5.583 28.58-5.583 23.498 0 42.33 9.499 42.33 21.164V72.64c-12.416-5.416-26.83-8.499-42.33-8.499-46.912 0-84.658 28.33-84.658 63.494 0 4 0 5.333 1.167 10.582 6.666 30.164 41.412 52.912 83.492 52.912 15.498 0 29.913-3 42.329-8.416v8.416h42.33V42.975c0-35.163-37.747-63.494-84.66-63.494zm0 126.988c23.497 0 42.329 9.5 42.329 21.165 0 11.749-18.832 21.165-42.33 21.165-23.414 0-42.329-9.416-42.329-21.165 0-11.666 18.915-21.165 42.33-21.165zm0 0" transform="matrix(.04688 0 0 .04688 0 10.08)" fill="url(#h)" stroke-width="3" stroke="#212121"/><path d="M269.89-105.177l31.748 58.244c5.25 10.583 47.579 10.583 42.33-5.333l-21.165-52.911c-10.583-21.165-63.494-15.832-52.912 0zm0 0" transform="matrix(.04688 0 0 .04688 0 10.08)" fill-rule="evenodd" fill="url(#i)" stroke-width="3" stroke="#212121"/></svg>
